assets/svg/messenger.svg

<svg width="24" height="24" viewBox="0 0 24 24" fill="none" xmlns="http://www.w3.org/2000/svg">
<path d="M3 21L4.29899 16.6183C3.17631 14.7513 2.77017 12.5404 3.1561 10.3966C3.54202 8.25275 4.69374 6.32196 6.39712 4.96318C8.1005 3.6044 10.2396 2.91009 12.4168 3.00934C14.5939 3.1086 16.6609 3.99466 18.2334 5.50279C19.806 7.01092 20.777 9.03849 20.9661 11.2085C21.1551 13.3785 20.5493 15.5433 19.2612 17.3004C17.9731 19.0575 16.0905 20.2872 13.9633 20.7611C11.8361 21.2349 9.60906 20.9206 7.69635 19.8765L3 21Z" stroke="#0059DF" stroke-width="2" stroke-linecap="round" stroke-linejoin="round"/>
<path d="M7.99609 13.1354L10.9938 10.8883L12.9922 13.1354L15.9899 10.8883" stroke="#0059DF" stroke-width="2" stroke-linecap="round" stroke-linejoin="round"/>
</svg>

<svg xmlns="http://www.w3.org/2000/svg" width="24" height="24" fill="none" stroke="#0059df" stroke-width="2" stroke-linejoin="round" xmlns:v="https://vecta.io/nano"><path d="M3 21l1.3-4.382c-1.123-1.867-1.53-4.078-1.143-6.222s1.538-4.075 3.24-5.433S10.24 2.9 12.417 3.01s4.244.985 5.817 2.493 2.544 3.536 2.733 5.706-.417 4.335-1.705 6.092-3.17 2.987-5.298 3.46a9 9 0 0 1-6.267-.885L3 21z"/><path d="M7.996 13.135l2.998-2.247 1.998 2.247L16 10.888" stroke-linecap="round"/></svg>
